X: 11129
T: Duke Of Leinster, The
R: reel
M: 4/4
K: Gmajor
D|"G"~G2 GB "G"dB ~B2|"Em"dBeB dBAF|"G"GB ~B2 "G"GB ~B2|"Em"dBGB "Em"GEDE|
"G"~G2 GB "G"dB ~B2|"G"dBeB "Bm"dBAF|"G"GABd "Em"~g3 e|"Bm"dBAF "Em"GE ~E2||
"G"dzga "G"bg ~g2|"G"agbg "Em"abge|"G"dega "Em"bage|"Bm"dBAF "Em"GE ~E2|
"G"dega "G"bg ~g2|"G"agbg "Em"ageg|"G"bg ~g2 "Em"efge|"G"dBAB "Em"GEDE||

